X:1
T:Hick's Farewell
M:3/4
L:1/8
K:G
B,-E| E4E-G| E4 D2| B,4 A,2| B,4G-A| A4G-E| E4G-A| A4G-A| A4 G2| E4 E2|\
 D4 B,2| D4 G3/2- E/2| E4E-D| B,4D-E| E4||
